svg/factions/grineer.svg

<svg xmlns="http://www.w3.org/2000/svg" width="256" height="256">
    <path d="M66.83 8.07c44.35-.1 88.72-.15 133.07.03.23 71.62.04 143.27.1 214.9-.09 5.63.18 11.27-.1 16.9-44.34.16-88.71.16-133.05 0 .78-1.2 1.64-2.35 2.55-3.45 26.69-31.32 53.31-62.71 79.97-94.06 3.28-4.02 6.93-7.75 9.98-11.95.96-1-.37-2.06-.85-2.89-29.97-38.74-59.74-77.63-89.67-116.4-.73-.99-1.39-2.02-2-3.08"/>
    <path d="M56.25 86.36c20.14.04 40.29 0 60.43.02.3 8.07.28 16.19.02 24.27-7.27.26-14.57-.35-21.82.23-.36 9.39-.36 18.84-.01 28.24 7.26.58 14.56-.03 21.83.23.26 7.42.27 14.88 0 22.3-20.16.04-40.32.01-60.47.02-.54-20.54-.07-41.12-.23-61.67.08-4.55-.27-9.12.25-13.64"/>
</svg>

<svg width="256px" height="256px" viewBox="0 0 256 256" version="1.1" xmlns="http://www.w3.org/2000/svg"><path d=" M 66.83 8.07 C 111.18 7.97 155.55 7.92 199.90 8.10 C 200.13 79.72 199.94 151.37 200.00 223.00 C 199.91 228.63 200.18 234.27 199.90 239.90 C 155.56 240.06 111.19 240.06 66.85 239.90 C 67.63 238.70 68.49 237.55 69.40 236.45 C 96.09 205.13 122.71 173.74 149.37 142.39 C 152.65 138.37 156.30 134.64 159.35 130.44 C 160.31 129.44 158.98 128.38 158.50 127.55 C 128.53 88.81 98.76 49.92 68.83 11.15 C 68.10 10.16 67.44 9.13 66.83 8.07 Z" /><path d=" M 56.25 86.36 C 76.39 86.40 96.54 86.36 116.68 86.38 C 116.98 94.45 116.96 102.57 116.70 110.65 C 109.43 110.91 102.13 110.30 94.88 110.88 C 94.52 120.27 94.52 129.72 94.87 139.12 C 102.13 139.70 109.43 139.09 116.70 139.35 C 116.96 146.77 116.97 154.23 116.70 161.65 C 96.54 161.69 76.38 161.66 56.23 161.67 C 55.69 141.13 56.16 120.55 56.00 100.00 C 56.08 95.45 55.73 90.88 56.25 86.36 Z" /></svg>
